X: 3
T: the Drunken Sailor   [Dm]
C: Trad (song)
R: reel
Z: 2011 John Chambers <jc:trillian.mit.edu>
M: C|
L: 1/8
K: Ddor
[| "Dm"A2AA A2AA | A2D2 F2A2 | "C"G2GG G2GG | G2C2 E2G2 \
|  "Dm"A2AA A2AA | A2B2 c2d2 | "Am"c2A2 G2E2 | "Dm"D4 D4 |]
[| "Dm"A4 A4 | A2D2 F2A2 | "C"G4 G4 | G2C2 E2G2 \
|  "Dm"A4 A4 | A2B2 c2c2 | "Am"c2A2 G2E2 | "Dm"D4 D4 |]

%%sep 1 1 500
%%sep 1 1 500

